X:5
T:Polska efter Anders Fredrik Andersson
T:(Sv. L. Sm. 5)
O:Tryserum, Småland
R:Polska
S:efter Anders Fredrik Andersson
B:Svenska Låtar Småland
Z:Jonas Brunskog
M:3/4
L:1/16
K:C
|:G2AB cBce dcdf|edeg fefa g4|g2ag fedc Bcde|fefd cBAG GEDC|
  G2AB cBce dcdf|edeg fefa g4|g2ag fedc Bcde|gfed d4 c4:|
|:B2Bc dcBA GFED|C2g2 fefd c2c2|B2Bc dcBA GFED|C2g2 fefd c2c2|
  gbge fafd egec|dfdB B4 c4:|

